X: 40844
T: Tramps And Hawkers
R: waltz
M: 3/4
K: Cmajor
C|E2 E D2 C|D E2 C2 A,|G,2 A, C2 D|C3C2 E|G2 GE FG|
A2 AG2 E|C2 DE DC|A,3A,2 E|G2 GE FG|A2 AG ED|
C2 DE DC|A,3A, CD|E2 ED2 C|D E2 C2 A,|G,2 A, C2 D|
C3C2 E|G2 GE FG|A G2G2 E|C2 DE DC|A,3A, CD|
E2 E D2 C|D2 E C2 A,|G,2 A, C2 D|C3C2 z|

